public/static/images/projects/drinkee/thumbnail.svg

<svg xmlns="http://www.w3.org/2000/svg" width="1920" height="1080" fill="none"><path fill="#5BCBD0" d="M794.365 410.17c5.309-9.706 12.188-14.877 20.647-15.505 25.093-1.276 49.626-.717 73.6 1.688 23.963 2.414 46.682 10.039 68.143 22.884 24.337 14.661 42.06 33.395 53.185 56.21q14.37 29.72 11.7 65.121c-1.26 16.78-7.97 33.346-20.14 49.695-12.166 16.328-24.51 29.91-37.013 40.744-14.366 12.512-29.557 22.414-45.572 29.715-16.281 7.595-33.444 12.776-51.5 15.543q-34.073 5.3-67.751 2.003a1710 1710 0 0 1-66.612-7.891c-7.066-.755-11.315-2.835-12.757-6.24-1.462-3.396-1.688-7.557-.668-12.483 6.673-34.327 16.673-75.493 29.99-123.49q19.974-72.024 44.748-117.994m143.627 129.26c1.511-9.706-2.267-18.783-11.344-27.242-3.533-2.904-7.566-5.809-12.09-8.714-13.64-7.585-28.282-12.384-43.925-14.406-4.16-.628-8.144-.873-11.932-.746-4.534.393-8.557 1.914-12.09 4.554-1.786 1.256-4.278 6.045-7.498 14.367-3.218 8.321-6.437 17.447-9.655 27.359-3.2 9.891-5.927 19.136-8.204 27.712-2.277 8.587-3.239 13.641-2.866 15.152q.194 1.693 1.138 2.473c5.937 3.405 12.885 5.986 20.843 7.733A92 92 0 0 0 864 589.556c10.363-.363 21.962-2.277 34.817-5.731 12.875-3.474 22.394-10.019 28.577-19.626q7.963-12.084 10.598-24.769M1178.94 658.369q-2.835 12.69-19.86 20.255c-9.59 4.534-20.69 6.791-33.3 6.791-14.88 0-25.99-2.885-33.32-8.675-6.7-5.044-9.22-11.109-7.57-18.174 1.77-7.694 7.65-14.19 17.62-19.509 9.58-5.28 21.37-7.929 35.37-7.929 14.53 0 25.56 3.022 33.12 9.067 6.94 5.29 9.59 11.344 7.94 18.174m.78-64.335c.23 2.022.35 4.102.35 6.241-.14 2.021-.56 3.72-1.29 5.103-1.02 1.649-2.61 2.905-4.75 3.769-2.15 1.393-5.05 2.394-8.71 3.022-6.94 1.521-14.72 2.227-23.36 2.12-8.64-.128-16.44-.835-23.39-2.12-7.44-1.119-13.23-5.221-17.39-12.287-2.54-3.787-4.56-8.458-6.05-14.013-1.41-3.896-2.62-8.88-3.61-14.955-.76-4.161-1.33-9.264-1.69-15.309-.13-2.531-.3-5.034-.51-7.497a97 97 0 0 1-.28-7.458c-.23-4.416-.3-9.205-.19-14.367a77 77 0 0 1 0-7.104c.13-2.454.32-4.887.59-7.301.13-2.768.57-7.557 1.34-14.367.36-4.553.91-9.352 1.68-14.406a810 810 0 0 1 3.5-25.828c1.33-8.636 3.88-17.174 7.65-25.633 3.43-8.576 8.09-15.514 14.01-20.804 3.67-3.425 10.54-6.261 20.65-8.518 8.68-1.648 18.22-2.286 28.58-1.923 10.07.53 18.33 1.865 24.77 4.004 6.95 2.512 10.3 5.672 10.05 9.46-.14 1.128-.59 3.012-1.34 5.652-.38 1.021-1.31 3.17-2.83 6.438-6.31 13.14-10.48 28.066-12.52 44.787-2.02 16.703-3.84 32.06-5.45 46.083a326 326 0 0 0-3.06 38.704c-.25 12.934.83 25.77 3.25 38.507"/></svg>

<svg width="1920" height="1080" viewBox="0 0 1920 1080" fill="none" xmlns="http://www.w3.org/2000/svg">
<path d="M794.365 410.17C799.674 400.464 806.553 395.293 815.012 394.665C840.105 393.389 864.638 393.948 888.612 396.353C912.575 398.767 935.294 406.392 956.755 419.237C981.092 433.898 998.815 452.632 1009.94 475.447C1019.52 495.261 1023.42 516.967 1021.64 540.568C1020.38 557.348 1013.67 573.914 1001.5 590.263C989.334 606.591 976.99 620.173 964.487 631.007C950.121 643.519 934.93 653.421 918.915 660.722C902.634 668.317 885.471 673.498 867.415 676.265C844.698 679.798 822.117 680.466 799.664 678.268C777.212 676.049 755.004 673.42 733.052 670.377C725.986 669.622 721.737 667.542 720.295 664.137C718.833 660.741 718.607 656.58 719.627 651.654C726.3 617.327 736.3 576.161 749.617 528.164C762.933 480.148 777.849 440.816 794.365 410.17ZM937.992 539.43C939.503 529.724 935.725 520.647 926.648 512.188C923.115 509.284 919.082 506.379 914.558 503.474C900.918 495.889 886.276 491.09 870.633 489.068C866.473 488.44 862.489 488.195 858.701 488.322C854.167 488.715 850.144 490.236 846.611 492.876C844.825 494.132 842.333 498.921 839.113 507.243C835.895 515.564 832.676 524.69 829.458 534.602C826.258 544.493 823.531 553.738 821.254 562.314C818.977 570.901 818.015 575.955 818.388 577.466C818.516 578.594 818.898 579.419 819.526 579.939C825.463 583.344 832.411 585.925 840.369 587.672C848.191 589.32 856.071 589.948 864 589.556C874.363 589.193 885.962 587.279 898.817 583.825C911.692 580.351 921.211 573.806 927.394 564.199C932.703 556.142 936.235 547.888 937.992 539.43Z" fill="#5BCBD0"/>
<path d="M1178.94 658.369C1177.05 666.829 1170.43 673.58 1159.08 678.624C1149.49 683.158 1138.39 685.415 1125.78 685.415C1110.9 685.415 1099.79 682.53 1092.46 676.74C1085.76 671.696 1083.24 665.631 1084.89 658.566C1086.66 650.872 1092.54 644.376 1102.51 639.057C1112.09 633.777 1123.88 631.128 1137.88 631.128C1152.41 631.128 1163.44 634.15 1171 640.195C1177.94 645.485 1180.59 651.539 1178.94 658.369ZM1179.72 594.034C1179.95 596.056 1180.07 598.136 1180.07 600.275C1179.93 602.296 1179.51 603.995 1178.78 605.378C1177.76 607.027 1176.17 608.283 1174.03 609.147C1171.88 610.54 1168.98 611.541 1165.32 612.169C1158.38 613.69 1150.6 614.396 1141.96 614.289C1133.32 614.161 1125.52 613.454 1118.57 612.169C1111.13 611.05 1105.34 606.948 1101.18 599.882C1098.64 596.095 1096.62 591.424 1095.13 585.869C1093.72 581.973 1092.51 576.989 1091.52 570.914C1090.76 566.753 1090.19 561.65 1089.83 555.605C1089.7 553.074 1089.53 550.571 1089.32 548.108C1089.13 545.655 1089.04 543.162 1089.04 540.65C1088.81 536.234 1088.74 531.445 1088.85 526.283C1088.74 524.007 1088.74 521.641 1088.85 519.179C1088.98 516.725 1089.17 514.292 1089.44 511.878C1089.57 509.11 1090.01 504.321 1090.78 497.511C1091.14 492.958 1091.69 488.159 1092.46 483.105C1093.49 474.528 1094.64 465.912 1095.96 457.277C1097.29 448.641 1099.84 440.103 1103.61 431.644C1107.04 423.068 1111.7 416.13 1117.62 410.84C1121.29 407.415 1128.16 404.579 1138.27 402.322C1146.95 400.674 1156.49 400.036 1166.85 400.399C1176.92 400.929 1185.18 402.264 1191.62 404.403C1198.57 406.915 1201.92 410.075 1201.67 413.863C1201.53 414.991 1201.08 416.875 1200.33 419.515C1199.95 420.536 1199.02 422.685 1197.5 425.953C1191.19 439.093 1187.02 454.019 1184.98 470.74C1182.96 487.443 1181.14 502.8 1179.53 516.823C1177.74 529.679 1176.72 542.573 1176.47 555.527C1176.22 568.461 1177.3 581.297 1179.72 594.034Z" fill="#5BCBD0"/>
</svg>
